X: 4
T: Red Steer
S: John Dykes Red Steer.mp3 - Jeff Goehring
R: reel
Z: 2012 John Chambers <jc:trillian.mit.edu>
M: 2/4
L: 1/16
Z: Contributed 2016-03-09 22:10:48 by Jim Gaskins fiddleji@comcast.net
K: A
[|\
e2a2 abaf | e2a2 a2cd | e2a2 abaf | e2c2 B2A2 |\
A2a2 a2a2 | b2a2 a2f2 | e2a2 abaf | e2c2 B2A2 |]
[|\
c2c2 d2fd | ec2c B2B2 | ABcc defd | e2c2 B2A2 |\
c2c2 d2fd | ec2c B2B2 | Ac2c defd | e2c2 B2Ac |]
[|\
e2c2 e2c2 | e2c2 B2Bc | e2c2 e2c2 | e2c2 B2Ac |\
e2c2 d2f2 | ec2c B2cB | ABcd efec | e2c2 B2A2 |]
